X:552
T:Polska efter Vingel Anders
T:(SvL Hälsingland 552)
R:Polska
O:Bollnäs och Delsbo, Hälsingland
S:Anders Wallin
S:Vingel Anders
N:SvL: Polskan uppgavs komma från Delsbo.
Z:Till abc Jonas Brunskog
M:3/4
L:1/8
K:A
(va|:e>)d cz/e/ (a>c')|e>d c>e gb/g/|e>c d>B cz/A/|EG/B/ e2 (f2|
e>)d cz/e/ (a>c')|e>d c>e gb/g/|e>c d>B cz/A/|1EG/B/ A3 (a:|2EG/B/ A4||
|:[A,E]2 e>d (3cec|D2 f>e (3dfd|[A,E]2 b>g ez/g/|a>c' e>a c>e|
[A,E]2 e>d (3cec|D2 f>e (3dfd|[A,E]2 b>g ez/g/|(a/g/)f/g/ a3z:|

